web/public/images/3p-logos/community/pullflow.svg

<svg fill="none" height="368" width="1447" xmlns="http://www.w3.org/2000/svg"><clipPath id="a"><path d="M0 0h1447v368H0z"/></clipPath><clipPath id="b"><path d="M17 12h1390v360H17z"/></clipPath><g clip-path="url(#a)"><path d="M0 0h1447v368H0z" fill="#fff"/><g clip-path="url(#b)"><g fill="#674ba8"><path d="M402 292V77.4h69.84c14.784 0 27.408 2.256 37.872 6.768 10.56 4.512 18.624 11.568 24.192 21.168s8.352 22.032 8.352 37.296-2.784 27.792-8.352 37.584c-5.472 9.696-13.44 16.896-23.904 21.6s-22.992 7.056-37.584 7.056h-36.432V292zm33.984-111.64h32.256c13.344 0 23.328-3.024 29.952-9.072 6.72-6.048 10.08-15.456 10.08-28.224s-3.312-22.128-9.936-28.08c-6.624-6.048-16.848-9.072-30.672-9.072h-31.68zM618.667 294.88c-13.536 0-24.576-2.688-33.12-8.064-8.544-5.472-14.832-13.152-18.864-23.04-3.936-9.984-5.904-21.84-5.904-35.568v-79.2h32.112v76.608c0 13.92 2.352 24.384 7.056 31.392 4.8 6.912 12.48 10.368 23.04 10.368 8.064 0 15.024-1.92 20.88-5.76s10.416-9.456 13.68-16.848l-5.472 16.56v-112.32h32.112V292h-29.52l-3.024-26.064 7.488 8.208c-3.936 5.952-9.504 10.896-16.704 14.832s-15.12 5.904-23.76 5.904zM752.817 294.88c-8.736 0-15.84-1.68-21.312-5.04-5.376-3.36-9.312-7.776-11.808-13.248-2.496-5.568-3.744-11.616-3.744-18.144V76h32.256v167.76c0 7.776.48 13.44 1.44 16.992.96 3.456 2.784 5.664 5.472 6.624 2.784.864 6.912 1.296 12.384 1.296l-3.456 26.208zM823.446 294.88c-8.736 0-15.84-1.68-21.312-5.04-5.376-3.36-9.312-7.776-11.808-13.248-2.496-5.568-3.744-11.616-3.744-18.144V76h32.256v167.76c0 7.776.48 13.44 1.44 16.992.96 3.456 2.784 5.664 5.472 6.624 2.784.864 6.912 1.296 12.384 1.296l-3.456 26.208zM865.582 292V175.072h-21.888l3.312-26.064h18.576v-31.536c0-12.672 3.6-22.752 10.8-30.24C883.678 79.744 894.19 76 907.918 76c4.704 0 8.928.288 12.672.864 3.744.48 7.2 1.2 10.368 2.16l-3.456 26.208a36.696 36.696 0 0 0-5.616-1.296c-1.824-.288-4.08-.432-6.768-.432-5.376 0-9.648 1.44-12.816 4.32-3.072 2.88-4.608 7.632-4.608 14.256v26.928h33.984v26.064h-33.984V292zM988.046 294.88c-8.736 0-15.84-1.68-21.312-5.04-5.376-3.36-9.312-7.776-11.808-13.248-2.496-5.568-3.744-11.616-3.744-18.144V76h32.256v167.76c0 7.776.48 13.44 1.44 16.992.96 3.456 2.784 5.664 5.472 6.624 2.784.864 6.912 1.296 12.38 1.296l-3.452 26.208zM1084.63 294.88c-15.36 0-28.47-3.36-39.31-10.08-10.76-6.72-19.01-15.696-24.77-26.928-5.67-11.232-8.5-23.616-8.5-37.152s2.83-25.968 8.5-37.296c5.76-11.328 14.01-20.352 24.77-27.072 10.84-6.816 23.95-10.224 39.31-10.224 15.26 0 28.32 3.408 39.17 10.224 10.84 6.72 19.1 15.744 24.76 27.072 5.76 11.328 8.64 23.76 8.64 37.296s-2.88 25.92-8.64 37.152c-5.66 11.232-13.92 20.208-24.76 26.928-10.85 6.72-23.91 10.08-39.17 10.08zm0-27.072c12.67 0 22.41-4.272 29.23-12.816 6.91-8.64 10.37-20.064 10.37-34.272 0-14.4-3.46-25.92-10.37-34.56-6.82-8.64-16.56-12.96-29.23-12.96s-22.47 4.32-29.38 12.96-10.37 20.16-10.37 34.56c0 14.208 3.46 25.632 10.37 34.272 6.91 8.544 16.71 12.816 29.38 12.816zM1206.87 292l-42.19-142.992h33.41l25.48 104.976 28.23-101.52h28.8l27.93 101.52 25.78-104.976h33.41L1325.38 292h-29.66l-29.52-97.632L1236.53 292zM216.168 288.011 334.041 185.44 216.168 82.87H172l117.873 102.57L172 288.011z"/></g><path d="M171.832 288.011 53.959 185.44 171.832 82.87H216L98.127 185.44 216 288.011z" fill="#805bd5"/></g></g></svg>

<svg width="1447" height="368" viewBox="0 0 1447 368" fill="none" xmlns="http://www.w3.org/2000/svg">
<g clip-path="url(#clip0_1_20)">
<rect width="1447" height="368" fill="white"/>
<g clip-path="url(#clip1_1_20)">
<path d="M402 292V77.4H471.84C486.624 77.4 499.248 79.656 509.712 84.168C520.272 88.68 528.336 95.736 533.904 105.336C539.472 114.936 542.256 127.368 542.256 142.632C542.256 157.896 539.472 170.424 533.904 180.216C528.432 189.912 520.464 197.112 510 201.816C499.536 206.52 487.008 208.872 472.416 208.872H435.984V292H402ZM435.984 180.36H468.24C481.584 180.36 491.568 177.336 498.192 171.288C504.912 165.24 508.272 155.832 508.272 143.064C508.272 130.296 504.96 120.936 498.336 114.984C491.712 108.936 481.488 105.912 467.664 105.912H435.984V180.36Z" fill="#674BA8"/>
<path d="M618.667 294.88C605.131 294.88 594.091 292.192 585.547 286.816C577.003 281.344 570.715 273.664 566.683 263.776C562.747 253.792 560.779 241.936 560.779 228.208V149.008H592.891V225.616C592.891 239.536 595.243 250 599.947 257.008C604.747 263.92 612.427 267.376 622.987 267.376C631.051 267.376 638.011 265.456 643.867 261.616C649.723 257.776 654.283 252.16 657.547 244.768L652.075 261.328V149.008H684.187V292H654.667L651.643 265.936L659.131 274.144C655.195 280.096 649.627 285.04 642.427 288.976C635.227 292.912 627.307 294.88 618.667 294.88Z" fill="#674BA8"/>
<path d="M752.817 294.88C744.081 294.88 736.977 293.2 731.505 289.84C726.129 286.48 722.193 282.064 719.697 276.592C717.201 271.024 715.953 264.976 715.953 258.448V76H748.209V243.76C748.209 251.536 748.689 257.2 749.649 260.752C750.609 264.208 752.433 266.416 755.121 267.376C757.905 268.24 762.033 268.672 767.505 268.672L764.049 294.88H752.817Z" fill="#674BA8"/>
<path d="M823.446 294.88C814.71 294.88 807.606 293.2 802.134 289.84C796.758 286.48 792.822 282.064 790.326 276.592C787.83 271.024 786.582 264.976 786.582 258.448V76H818.838V243.76C818.838 251.536 819.318 257.2 820.278 260.752C821.238 264.208 823.062 266.416 825.75 267.376C828.534 268.24 832.662 268.672 838.134 268.672L834.678 294.88H823.446Z" fill="#674BA8"/>
<path d="M865.582 292V175.072H843.694L847.006 149.008H865.582V117.472C865.582 104.8 869.182 94.72 876.382 87.232C883.678 79.744 894.19 76 907.918 76C912.622 76 916.846 76.288 920.59 76.864C924.334 77.344 927.79 78.064 930.958 79.024L927.502 105.232C925.678 104.656 923.806 104.224 921.886 103.936C920.062 103.648 917.806 103.504 915.118 103.504C909.742 103.504 905.47 104.944 902.302 107.824C899.23 110.704 897.694 115.456 897.694 122.08V149.008H931.678V175.072H897.694V292H865.582Z" fill="#674BA8"/>
<path d="M988.046 294.88C979.31 294.88 972.206 293.2 966.734 289.84C961.358 286.48 957.422 282.064 954.926 276.592C952.43 271.024 951.182 264.976 951.182 258.448V76H983.438V243.76C983.438 251.536 983.918 257.2 984.878 260.752C985.838 264.208 987.662 266.416 990.35 267.376C993.134 268.24 997.262 268.672 1002.73 268.672L999.278 294.88H988.046Z" fill="#674BA8"/>
<path d="M1084.63 294.88C1069.27 294.88 1056.16 291.52 1045.32 284.8C1034.56 278.08 1026.31 269.104 1020.55 257.872C1014.88 246.64 1012.05 234.256 1012.05 220.72C1012.05 207.184 1014.88 194.752 1020.55 183.424C1026.31 172.096 1034.56 163.072 1045.32 156.352C1056.16 149.536 1069.27 146.128 1084.63 146.128C1099.89 146.128 1112.95 149.536 1123.8 156.352C1134.64 163.072 1142.9 172.096 1148.56 183.424C1154.32 194.752 1157.2 207.184 1157.2 220.72C1157.2 234.256 1154.32 246.64 1148.56 257.872C1142.9 269.104 1134.64 278.08 1123.8 284.8C1112.95 291.52 1099.89 294.88 1084.63 294.88ZM1084.63 267.808C1097.3 267.808 1107.04 263.536 1113.86 254.992C1120.77 246.352 1124.23 234.928 1124.23 220.72C1124.23 206.32 1120.77 194.8 1113.86 186.16C1107.04 177.52 1097.3 173.2 1084.63 173.2C1071.96 173.2 1062.16 177.52 1055.25 186.16C1048.34 194.8 1044.88 206.32 1044.88 220.72C1044.88 234.928 1048.34 246.352 1055.25 254.992C1062.16 263.536 1071.96 267.808 1084.63 267.808Z" fill="#674BA8"/>
<path d="M1206.87 292L1164.68 149.008H1198.09L1223.57 253.984L1251.8 152.464H1280.6L1308.53 253.984L1334.31 149.008H1367.72L1325.38 292H1295.72L1266.2 194.368L1236.53 292H1206.87Z" fill="#674BA8"/>
<path d="M216.168 288.011L334.041 185.44L216.168 82.8696H172L289.873 185.44L172 288.011H216.168Z" fill="#674BA8"/>
<path d="M171.832 288.011L53.9588 185.44L171.832 82.8696H216L98.1268 185.44L216 288.011H171.832Z" fill="#805BD5"/>
</g>
</g>
<defs>
<clipPath id="clip0_1_20">
<rect width="1447" height="368" fill="white"/>
</clipPath>
<clipPath id="clip1_1_20">
<rect width="1390" height="360" fill="white" transform="translate(17 12)"/>
</clipPath>
</defs>
</svg>
